tools/download-figma-icons/icons/outlined-medium/wind.svg

<svg width="24" height="24" viewBox="0 0 24 24" fill="none" xmlns="http://www.w3.org/2000/svg">
<path d="M12.75 9.75H2.25C1.8375 9.75 1.5 9.4125 1.5 9C1.5 8.5875 1.8375 8.25 2.25 8.25H12.75C13.9875 8.25 15 7.2375 15 6C15 4.7625 13.9875 3.75 12.75 3.75C12.3375 3.75 12 3.4125 12 3C12 2.5875 12.3375 2.25 12.75 2.25C14.82 2.25 16.5 3.93 16.5 6C16.5 8.07 14.82 9.75 12.75 9.75Z" fill="black"/>
<path d="M9.75 21.75C9.3375 21.75 9 21.4125 9 21C9 20.5875 9.3375 20.25 9.75 20.25C10.9875 20.25 12 19.2375 12 18C12 16.7625 10.9875 15.75 9.75 15.75H2.25C1.8375 15.75 1.5 15.4125 1.5 15C1.5 14.5875 1.8375 14.25 2.25 14.25H9.75C11.82 14.25 13.5 15.93 13.5 18C13.5 20.07 11.82 21.75 9.75 21.75Z" fill="black"/>
<path d="M19.5 12.75H2.25C1.8375 12.75 1.5 12.4125 1.5 12C1.5 11.5875 1.8375 11.25 2.25 11.25H19.5C20.325 11.25 21 10.575 21 9.75C21 8.925 20.325 8.25 19.5 8.25C19.0875 8.25 18.75 7.9125 18.75 7.5C18.75 7.0875 19.0875 6.75 19.5 6.75C21.1575 6.75 22.5 8.0925 22.5 9.75C22.5 11.4075 21.1575 12.75 19.5 12.75Z" fill="black"/>
</svg>

<svg width="24" height="24" viewBox="0 0 24 24" fill="none" xmlns="http://www.w3.org/2000/svg"><path d="M12.75 9.75H2.25A.752.752 0 0 1 1.5 9c0-.412.337-.75.75-.75h10.5A2.257 2.257 0 0 0 15 6a2.257 2.257 0 0 0-2.25-2.25A.752.752 0 0 1 12 3c0-.413.338-.75.75-.75 2.07 0 3.75 1.68 3.75 3.75 0 2.07-1.68 3.75-3.75 3.75Zm-3 12A.752.752 0 0 1 9 21c0-.413.338-.75.75-.75A2.257 2.257 0 0 0 12 18a2.257 2.257 0 0 0-2.25-2.25h-7.5A.752.752 0 0 1 1.5 15c0-.412.337-.75.75-.75h7.5c2.07 0 3.75 1.68 3.75 3.75 0 2.07-1.68 3.75-3.75 3.75Z" fill="currentColor"/><path d="M19.5 12.75H2.25A.752.752 0 0 1 1.5 12c0-.412.337-.75.75-.75H19.5c.825 0 1.5-.675 1.5-1.5s-.675-1.5-1.5-1.5a.752.752 0 0 1-.75-.75c0-.412.337-.75.75-.75a3 3 0 1 1 0 6Z" fill="currentColor"/></svg>
